svgs/duotone/file-audio.svg

<svg xmlns="http://www.w3.org/2000/svg" viewBox="0 0 384 512"><!--! Font Awesome Pro 6.0.0-alpha3 by @fontawesome - https://fontawesome.com License - https://fontawesome.com/license (Commercial License) --><defs><style>.fa-secondary{opacity:.4}</style></defs><path class="fa-primary" d="M256 0v128h128L256 0zM155.5 259.5L120 296H76C69.38 296 64 301.4 64 308v56c0 6.625 5.375 12 12 12H120l35.5 36.5C163.1 420 176 414.8 176 404v-136C176 257.3 163.1 251.9 155.5 259.5zM234.7 288.3c-6.547-5.875-16.67-5.375-22.59 1.219c-5.906 6.594-5.359 16.69 1.219 22.59C220.2 318.3 224 326.8 224 336s-3.797 17.69-10.69 23.88c-6.578 5.906-7.125 16-1.219 22.59C215.3 386 219.6 387.8 224 387.8c3.812 0 7.625-1.398 10.69-4.148C248.2 371.5 256 354.2 256 336S248.2 300.5 234.7 288.3zM265.1 230.9c-7.281-5.094-17.22-3.312-22.27 3.969c-5.047 7.25-3.27 17.22 3.98 22.28C272.6 275.2 288 304.6 288 336s-15.39 60.86-41.16 78.83c-7.25 5.062-9.016 15.03-3.969 22.28c3.109 4.469 8.09 6.844 13.14 6.844c3.156 0 6.363-.9375 9.145-2.875C299.5 417.1 320 377.8 320 336C320 294.2 299.5 254.9 265.1 230.9z"/><path class="fa-secondary" d="M256 128V0H48C21.49 0 0 21.49 0 48v416C0 490.5 21.49 512 48 512h288c26.51 0 48-21.49 48-48V128H256zM176 404c0 10.75-12.88 15.98-20.5 8.484L120 376H76C69.38 376 64 370.6 64 364v-56C64 301.4 69.38 296 76 296H120l35.5-36.5C163.1 251.9 176 257.3 176 268V404zM224 387.8c-4.391 0-8.75-1.835-11.91-5.367c-5.906-6.594-5.359-16.69 1.219-22.59C220.2 353.7 224 345.2 224 336s-3.797-17.69-10.69-23.88c-6.578-5.906-7.125-16-1.219-22.59c5.922-6.594 16.05-7.094 22.59-1.219C248.2 300.5 256 317.8 256 336s-7.766 35.53-21.31 47.69C231.6 386.4 227.8 387.8 224 387.8zM265.2 441.1c-2.781 1.938-5.988 2.875-9.145 2.875c-5.047 0-10.03-2.375-13.14-6.844c-5.047-7.25-3.281-17.22 3.969-22.28C272.6 396.9 288 367.4 288 336s-15.38-60.84-41.14-78.8c-7.25-5.062-9.027-15.03-3.98-22.28c5.047-7.281 14.99-9.062 22.27-3.969C299.5 254.9 320 294.2 320 336C320 377.8 299.5 417.1 265.2 441.1z"/></svg>

<svg xmlns="http://www.w3.org/2000/svg" viewBox="0 0 384 512"><!-- Font Awesome Pro 6.0.0-alpha2 by @fontawesome - https://fontawesome.com License - https://fontawesome.com/license (Commercial License) --><defs><style>.fa-secondary{opacity:.4}</style></defs><path d="M256 128V0H48C21.49 0 0 21.492 0 48V464C0 490.508 21.49 512 48 512H336C362.51 512 384 490.508 384 464V128H256ZM176 404C176 414.75 163.125 420 155.5 412.5L120 376H76C69.375 376 64 370.625 64 364V308C64 301.375 69.375 296 76 296H120L155.5 259.5C163.125 251.875 176 257.25 176 268V404ZM224 387.781C219.609 387.781 215.25 386.001 212.094 382.469C206.188 375.875 206.734 365.781 213.312 359.875C220.203 353.688 224 345.219 224 336S220.203 318.312 213.312 312.125C206.734 306.219 206.188 296.125 212.094 289.531C218.016 282.937 228.141 282.437 234.688 288.312C248.234 300.469 256 317.844 256 336S248.234 371.531 234.688 383.688C231.625 386.438 227.812 387.781 224 387.781ZM265.156 441.062C262.375 443 259.172 443.938 256.016 443.938C250.969 443.938 245.984 441.562 242.875 437.094C237.828 429.844 239.594 419.875 246.844 414.812C272.609 396.844 288 367.375 288 336S272.625 275.188 246.859 257.219C239.609 252.156 237.828 242.187 242.875 234.937C247.922 227.656 257.859 225.875 265.141 230.969C299.5 254.906 320 294.156 320 336C320 377.812 299.5 417.094 265.156 441.062Z" class="fa-secondary"/><path d="M256 0V128H384L256 0ZM155.5 259.5L120 296H76C69.375 296 64 301.375 64 308V364C64 370.625 69.375 376 76 376H120L155.5 412.5C163.125 420 176 414.75 176 404V268C176 257.25 163.125 251.875 155.5 259.5ZM234.688 288.312C228.141 282.437 218.016 282.937 212.094 289.531C206.188 296.125 206.734 306.219 213.312 312.125C220.203 318.312 224 326.781 224 336S220.203 353.688 213.312 359.875C206.734 365.781 206.188 375.875 212.094 382.469C215.25 386.001 219.609 387.781 224 387.781C227.812 387.781 231.625 386.438 234.688 383.688C248.234 371.531 256 354.156 256 336S248.234 300.469 234.688 288.312ZM265.141 230.969C257.859 225.875 247.922 227.656 242.875 234.937C237.828 242.187 239.609 252.156 246.859 257.219C272.625 275.188 288 304.625 288 336S272.609 396.844 246.844 414.812C239.594 419.875 237.828 429.844 242.875 437.094C245.984 441.562 250.969 443.938 256.016 443.938C259.172 443.938 262.375 443 265.156 441.062C299.5 417.094 320 377.812 320 336C320 294.156 299.5 254.906 265.141 230.969Z" class="fa-primary"/></svg>
